symbols/web/6mp/materialsymbolsrounded/6mp_wght300gradN25fill1_20px.svg

<svg xmlns="http://www.w3.org/2000/svg" height="20" width="20"><path d="M8.917 9.458h2.021q.27 0 .5-.208.229-.208.229-.5V7.542q0-.292-.229-.511-.23-.219-.5-.219H9.146v-1.02h2.042q.187 0 .322-.136.136-.135.136-.344 0-.187-.146-.333-.146-.146-.333-.146h-2.25q-.292 0-.511.24-.218.239-.218.51V8.75q0 .25.218.479.219.229.511.229Zm.229-.708V7.5h1.542v1.25Zm-4.584 8.188q-.624 0-1.062-.438-.438-.438-.438-1.062V4.562q0-.624.438-1.062.438-.438 1.062-.438h10.876q.624 0 1.062.438.438.438.438 1.062v10.876q0 .624-.438 1.062-.438.438-1.062.438Zm1.188-1.792q.167 0 .312-.146.146-.146.146-.354v-3.167h1.084v1.979q0 .209.135.344.135.136.344.136.187 0 .333-.146.146-.146.146-.354v-1.959h1.083v3.188q0 .208.136.343.135.136.343.136.188 0 .334-.146.146-.146.146-.354v-3.417q0-.291-.198-.5-.198-.208-.511-.208H5.958q-.291 0-.5.208-.208.209-.208.5v3.438q0 .208.135.343.136.136.365.136Zm6.062 0q.167 0 .313-.146t.146-.354v-.708h1.771q.312 0 .51-.209.198-.208.198-.479v-2.021q0-.291-.198-.5-.198-.208-.51-.208h-2.021q-.292 0-.5.208-.209.209-.209.5v3.438q0 .208.136.343.135.136.364.136Zm.459-3.667h1.521v1.479h-1.521Z"/></svg>

<svg xmlns="http://www.w3.org/2000/svg" height="20" width="20"><path d="M8.917 9.458H10.938Q11.208 9.458 11.438 9.25Q11.667 9.042 11.667 8.75V7.542Q11.667 7.25 11.438 7.031Q11.208 6.812 10.938 6.812H9.146V5.792H11.188Q11.375 5.792 11.51 5.656Q11.646 5.521 11.646 5.312Q11.646 5.125 11.5 4.979Q11.354 4.833 11.167 4.833H8.917Q8.625 4.833 8.406 5.073Q8.188 5.312 8.188 5.583V8.75Q8.188 9 8.406 9.229Q8.625 9.458 8.917 9.458ZM9.146 8.75V7.5H10.688V8.75ZM4.562 16.938Q3.938 16.938 3.5 16.5Q3.062 16.062 3.062 15.438V4.562Q3.062 3.938 3.5 3.5Q3.938 3.062 4.562 3.062H15.438Q16.062 3.062 16.5 3.5Q16.938 3.938 16.938 4.562V15.438Q16.938 16.062 16.5 16.5Q16.062 16.938 15.438 16.938ZM5.75 15.146Q5.917 15.146 6.062 15Q6.208 14.854 6.208 14.646V11.479H7.292V13.458Q7.292 13.667 7.427 13.802Q7.562 13.938 7.771 13.938Q7.958 13.938 8.104 13.792Q8.25 13.646 8.25 13.438V11.479H9.333V14.667Q9.333 14.875 9.469 15.01Q9.604 15.146 9.812 15.146Q10 15.146 10.146 15Q10.292 14.854 10.292 14.646V11.229Q10.292 10.938 10.094 10.729Q9.896 10.521 9.583 10.521H5.958Q5.667 10.521 5.458 10.729Q5.25 10.938 5.25 11.229V14.667Q5.25 14.875 5.385 15.01Q5.521 15.146 5.75 15.146ZM11.812 15.146Q11.979 15.146 12.125 15Q12.271 14.854 12.271 14.646V13.938H14.042Q14.354 13.938 14.552 13.729Q14.75 13.521 14.75 13.25V11.229Q14.75 10.938 14.552 10.729Q14.354 10.521 14.042 10.521H12.021Q11.729 10.521 11.521 10.729Q11.312 10.938 11.312 11.229V14.667Q11.312 14.875 11.448 15.01Q11.583 15.146 11.812 15.146ZM12.271 11.479H13.792V12.958H12.271Z"/></svg>
